X:440
T: Paddy Kelly's
S: P.Reddan: "Knockanalban"
Z: B.Black
L: 1/8
M: 6/8
R: jig
K: Edor
B,|EB,E GFE|BGE GFE|DA,D FED|FAD FED|
EB,E GFE|BGE GFE|BGB AFA|GAG E2 :|
B|efe BAB|eBe g2e|fdd add|fag fed|
efe BAB|eBe g2e|fdB AGF|GEE E2 :|
